!!!!SEGMENT: Gsc2014-Letatus_sum.krn
!!!id: Gsc2014
!!!AGN: Motet
!!!SCT: Merritt (1962)
!!!voices: 4
!!!COM: Mathieu Gascongne
!!!OTL: Letatus sum
**kern	**kern	**kern	**kern
*part4	*part3	*part2	*part1
*staff4	*staff3	*staff2	*staff1
*I"Bassus	*I"Tenor	*I"Altus	*I"Superius
*I'B	*I'T	*I'A	*I'S
*clefF4	*clefGv2	*clefG2	*clefG2
*k[]	*k[]	*k[]	*k[]
*C:	*C:	*C:	*C:
*M2/1	*M2/1	*M2/1	*M2/1
*met(C|)	*met(C|)	*met(C|)	*met(C|)
!!Section: Prima pars: Letatus sum
!!!OMD: Prima pars: Letatus sum
=1	=1	=1	=1
0r	1A	0r	0r
.	[1d	.	.
=2	=2	=2	=2
1D	2d]	0r	0r
.	2d	.	.
[1A	2c	.	.
.	2c	.	.
=3	=3	=3	=3
2A]	1f	0r	0r
2A	.	.	.
2G	2e	.	.
2G	2d	.	.
=4	=4	=4	=4
1c	1e	0r	0r
2B	2d	.	.
2A	[2f	.	.
=5	=5	=5	=5
1B-X	2f]	0r	0r
.	4e	.	.
.	4d	.	.
2.A	2.c	.	.
4B-i	4d	.	.
=6	=6	=6	=6
2c	2e	0r	1a
2.d	2.f	.	.
.	.	.	[1dd
4c	4e	.	.
4B-i	[2g	.	.
4A	.	.	.
=7	=7	=7	=7
1B-i	4g]	1d	2dd]
.	4f	.	.
.	2d	.	2dd
1A	2f	[1a	2cc
.	2e	.	2cc
=	=	=	=
*	*M3/3%2	*	*
*	*met(3)	*	*
*	*Xtuplet	*	*
1D	3.d	2a]	1ff
.	6c	2a	.
.	3A	.	.
1r	3c	2g	2ee
.	3%2B	.	.
.	.	2g	2dd
=	=	=	=
*	*tuplet	*	*
*	*M2/1	*	*
*	*met(C|)	*	*
0r	1A	1cc	1ee
.	2r	2b	2dd
.	2d	2a	[2ff
=8	=8	=8	=8
0r	2d	1b	2ff]
.	2e	.	4ee
.	.	.	4dd
.	2.f	2a	2cc
.	.	4d	[2dd
.	4g	4e	.
=9	=9	=9	=9
2r	2a	4f	4dd]
.	.	4g	4cc
2D	1f	1a	2a
2D	.	.	1b
2E	4e	2g#i	.
.	4d	.	.
=10	=10	=10	=10
2.F	2c	1a	0a
.	2A	.	.
4G	.	.	.
1A	[1e	2r	.
.	.	2A	.
=11	=11	=11	=11
1r	2e]	2.A	2r
.	2e	.	2a
.	.	4B	.
2r	2e	2c	2a
2D	2d	2d	2a
=12	=12	=12	=12
2A	1c	1e	2.cc
2A	.	.	.
.	.	.	4dd
2.A	2r	2.c	1ee
.	2A	.	.
4G	.	4B	.
=13	=13	=13	=13
2F	2.a	2c	1r
2.f	.	2d	.
.	4a	.	.
.	2.a	1A	2r
4e	.	.	.
2c	.	.	2a
.	4g	.	.
=14	=14	=14	=14
1d	2f	2r	2a
.	4e	2d	2b
.	4d	.	.
[1c	1e	2.a	2.cc
.	.	4a	4dd
=15	=15	=15	=15
1c]	2r	2a	1ee
.	1c	2g	.
2.F	.	2f	2.a
.	[2f	[2a	.
4G	.	.	4b
=16	=16	=16	=16
4A	2f]	2a]	4cc
4B	.	.	4dd
2c	2e	2g	4ee
.	.	.	4dd
2F	2.a	1cc	2ff
[2c	.	.	[2ee
.	4g	.	.
=17	=17	=17	=17
4c]	2a	2r	4ee]
4B	.	.	4dd
2d	2f	1a	1dd
1A	1e	.	.
.	.	2a	2cc#i
=18	=18	=18	=18
2r	0d	2b	0dd
1d	.	1a	.
2d	.	2f	.
=19	=19	=19	=19
2e	0r	2g	2r
1d	.	2.a	1dd
.	.	4d	.
2B	.	[2g	2dd
=20	=20	=20	=20
2c	1r	2g]	2ee
2d	.	2f	1dd
1G	2r	1g	.
.	[2e	.	2b
=21	=21	=21	=21
1A	2e]	2r	2.cc
.	2e	2c	.
.	.	.	4b
2r	2f	2d	2a
2E	[2e	2e	2g
=22	=22	=22	=22
1A	2e]	2c	2a
.	2c	2A	2cc
2G	2d	2B	2b
2E	[2e	2c	4a
.	.	.	4g
=23	=23	=23	=23
1F	4e]	1A	1a
.	4A	.	.
.	1d	.	.
1E	.	2r	1g
.	2c#i	2e	.
=24	=24	=24	=24
0r	2d	1a	2r
.	2A	.	2cc
.	2B	2g	2dd
.	2c	2e	[2ee
=25	=25	=25	=25
2r	2.d	1f	4ee]
.	.	.	4a
2F	.	.	1dd
.	4c	.	.
2G	4B	1e	.
.	4A	.	.
2A	2c	.	2cc
=26	=26	=26	=26
2D	1B	2r	2dd
2E	.	2e	2g
2F	2A	2.d	2a
[2G	2d	.	[2b
.	.	4c	.
=27	=27	=27	=27
2G]	2.e	4B	4b]
.	.	4A	4e
2A	.	2c	1a
.	8dL	.	.
.	8eJ	.	.
2D	2f	1B	.
2E	[2e	.	2g#i
=28	=28	=28	=28
2.F	4e]	2A	[0a
.	4d	.	.
.	1d	2.f	.
4G	.	.	.
1A	.	.	.
.	.	4e	.
.	2c#i	[2e	.
=29	=29	=29	=29
1D	2d	4e]	0a]
.	.	4d	.
.	1f	1d	.
1r	.	.	.
.	2e	2c	.
=30	=30	=30	=30
2r	4f	1d	2r
.	4e	.	.
2D	4d	.	2f
.	4c	.	.
2D	1d	1A	2f
2D	.	.	2f
=31	=31	=31	=31
1F	2c	2r	1a
.	2A	2c	.
2r	2A	2c	2r
2F	2A	2c	2a
=32	=32	=32	=32
2F	1c	1f	2a
2F	.	.	2a
1A	2r	2r	1cc
.	2c	2e	.
=33	=33	=33	=33
1r	2c	2e	2r
.	2c	2e	2cc
2r	1f	[1a	2cc
2A	.	.	2cc
=34	=34	=34	=34
2.A	1.e	2a]	1ee
.	.	2a	.
4B	.	.	.
2c	.	2g	2r
[2d	2d	2f	2a
=35	=35	=35	=35
2d]	2f	4d	2a
.	.	4e	.
4c	4e	4f	2b
4B	4d	4g	.
2A	2c	2a	2cc
2G	2g	[2b	[2dd
=36	=36	=36	=36
1B	2f	2b]	4dd]
.	.	.	4cc
.	2d	2g	4dd
.	.	.	4b
2A	2e	[1a	[1cc
4F	2f	.	.
4G	.	.	.
=37	=37	=37	=37
4A	2.c	2a]	2cc]
4B	.	.	.
1c	.	4g	4b
.	4d	4f	4a
.	4e	2e	2g
.	4f	.	.
4B	[2g	2c	2cc
4A	.	.	.
=38	=38	=38	=38
4G	4g]	2e	2b
4F	4c	.	.
2A	1f	2f	2a
1G	.	1g	1b
.	2e	.	.
=39	=39	=39	=39
1F	2f	2c	1a
.	2c	2f	.
1r	2d	2f	2r
.	2e	2g	2cc
=40	=40	=40	=40
2r	2.f	1.a	2dd
2c	.	.	2ee
.	4e	.	.
2d	2d	.	2.ff
2e	2c	2a	.
.	.	.	4ee
=41	=41	=41	=41
2.f	2d	2a	2dd
.	1f	2a	2cc
4e	.	.	.
2d	.	2b	2dd
2c	2e	[2cc	[2ee
=42	=42	=42	=42
2.d	2f	4cc]	2ee]
.	.	4a	.
.	2d	2.b	1dd
4c	.	.	.
2A	2f	.	.
.	.	4a	.
2c	[2e	[2a	2cc
=43	=43	=43	=43
1B	2e]	2a]	1dd
.	2d	2g	.
[1A	2e	2.a	2.cc
.	2A	.	.
.	.	4g	4b
=44	=44	=44	=44
2A]	2.c	4f	4a
.	.	4e	4g
2F	.	2a	2cc
.	4d	.	.
2G	2e	2g	2b
2F	[2f	2c	[2a
=45	=45	=45	=45
1B-i	2f]	4d	2a]
.	.	4e	.
.	4e	4f	1dd
.	4d	4g	.
1A	1e	[1a	.
.	.	.	2cc#i
=46	=46	=46	=46
0D	0d	1a]	0dd
.	.	2r	.
.	.	2f	.
=47	=47	=47	=47
0r	0r	2d	2r
.	.	2e	2cc
.	.	2f	2a
.	.	2g	2b
=48	=48	=48	=48
0r	0r	2a	2cc
.	.	2b	2dd
.	.	1cc	2ee
.	.	.	2ff
=49	=49	=49	=49
0r	0r	2b	1gg
.	.	2g	.
.	.	2a	2ff
.	.	2f	2dd
=50	=50	=50	=50
0r	0r	2g	2ee
.	.	1a	1cc
.	.	4g	4b
.	.	4f	4a
=51	=51	=51	=51
0r	0r	2e	2.cc
.	.	1a	.
.	.	.	4dd
.	.	.	1b
.	.	2g#i	.
=52	=52	=52	=52
0r	0r	2a	1a
.	.	2.f	.
.	.	.	2.cc
.	.	4f	.
.	.	2f	.
.	.	.	4cc
=53	=53	=53	=53
0r	0r	2e	2cc
.	.	2d	2b
.	.	4c	2a
.	.	4d	.
.	.	4e	2g
.	.	4c	.
=54	=54	=54	=54
0r	0r	4d	2b
.	.	4e	.
.	.	2.f	2a
.	.	.	2.g
.	.	4d	.
.	.	2e	.
.	.	.	4e
=55	=55	=55	=55
0r	2.c	2A	4f
.	.	.	4e
.	.	1e	1a
.	4c	.	.
.	2c	.	.
.	2B	2d	2g#i
=56	=56	=56	=56
2.c	2A	2.e	1a
.	1e	.	.
4c	.	4f	.
2c	.	4g	1r
.	.	4a	.
2B	2d	4b	.
.	.	4a	.
=57	=57	=57	=57
2A	1e	2cc	0r
2.G	.	2.b	.
.	2.d	.	.
4F	.	4a	.
2D	.	[2a	.
.	4c	.	.
=58	=58	=58	=58
2.F	1A	4a]	2.cc
.	.	4A	.
.	.	1a	.
4G	.	.	4cc
1E	1r	.	2cc
.	.	2g	2b
=59	=59	=59	=59
0r	2.c	2f	2a
.	.	2e	2.g
.	4c	.	.
.	2c	1g	.
.	.	.	4f
.	2B	.	2d
=60	=60	=60	=60
1r	2A	1a	2.f
.	2d	.	.
.	.	.	4g
2.c	2c	2r	2e
.	[2e	2e	2a
4c	.	.	.
=61	=61	=61	=61
2c	4e]	2g	4g
.	4d	.	4f
2B	1d	2g	4e
.	.	.	4d
1A	.	[1a	1e
.	2c#i	.	.
=62	=62	=62	=62
2F	4d	2a]	1d
.	4c	.	.
2.G	4B	4g	.
.	4A	4f	.
.	1B	4e	1r
4F	.	4d	.
2D	.	[2f	.
=63	=63	=63	=63
2.F	1A	4f]	2r
.	.	4e	.
.	.	1d	2d
4G	.	.	.
1E	1r	.	2.g
.	.	2c#i	.
.	.	.	4g
=64	=64	=64	=64
0D	2r	1d	2f
.	2A	.	2d
.	2.d	2r	1f
.	.	2d	.
.	4d	.	.
=65	=65	=65	=65
2r	2c	2.a	2e
2D	2A	.	1a
.	.	4a	.
2.d	1B	2f	.
.	.	2d	2g
4d	.	.	.
=66	=66	=66	=66
2c	1A	2e	2a
2A	.	2a	2cc
2B	1r	2g	2dd
2c	.	2e	[2ee
=67	=67	=67	=67
1d	2r	1f	2ee]
.	2a	.	2dd
2A	2a	2e	1ee
[2c	4g	[2A	.
.	4f	.	.
=68	=68	=68	=68
4c]	1e	4A]	1r
4B	.	4B	.
1A	.	4c	.
.	.	4A	.
.	2f	4c	2r
.	.	4d	.
2G	2g	[2e	2b
=69	=69	=69	=69
2A	2c	4e]	2cc
.	.	4f	.
2G	2d	2g	2b
2E	[1e	1c	2g
[2A	.	.	2a
=70	=70	=70	=70
2A]	1e]	2r	1b
2G	.	2e	.
2A	1r	2f	2r
2G	.	2e	2b
=71	=71	=71	=71
2A	0r	2c	2cc
4G	.	2d	2b
4F	.	.	.
[1E	.	[1e	2g
.	.	.	2a
=72	=72	=72	=72
1E]	1r	2e]	1.b
.	.	4d	.
.	.	4c	.
1r	2r	2d	.
.	2e	2e	4a
.	.	.	4g
=73	=73	=73	=73
0r	2f	1A	2a
.	2e	.	2.cc
.	2.c	2r	.
.	.	.	4b
.	.	2A	[2a
.	4d	.	.
=74	=74	=74	=74
2r	2.e	2c	2a]
2E	.	2B	2g
.	4d	.	.
2.F	4c	1A	2a
.	4B	.	.
.	[2A	.	[2cc
4G	.	.	.
=75	=75	=75	=75
2A	2A]	1e	4cc]
.	.	.	4a
2E	2G	.	2b
2F	2A	2.c	2a
2E	[2e	.	[2cc
.	.	4d	.
=76	=76	=76	=76
2C	2e]	2e	4cc]
.	.	.	4b
2D	4d	2f	1a
.	4c	.	.
1E	1B	4e	.
.	.	4f	.
.	.	4g	2g#i
.	.	4e	.
=77	=77	=77	=77
1r	0A	2f	0a
.	.	2e	.
2r	.	4c	.
.	.	4d	.
2A	.	4e	.
.	.	4f	.
=78	=78	=78	=78
2B	2r	2g	1r
2A	2e	2a	.
2F	2f	1A	2r
2G	2e	.	2ee
=79	=79	=79	=79
1.A	2.c	1r	2ff
.	.	.	2ee
.	4d	.	.
.	[1e	2r	2.cc
4G	.	2a	.
4F	.	.	4dd
=80	=80	=80	=80
2.E	2e]	2g	1.ee
.	4d	1e	.
4F	4c	.	.
4G	2B	.	.
4E	.	.	.
2A	2A	2f	4dd
.	.	.	4cc
=81	=81	=81	=81
2G	1d	2g	2b
2.F	.	2a	2.a
.	2c	2f	.
4G	.	.	4b
4A	2f	4e	4cc
4B	.	4d	4dd
=82	=82	=82	=82
2c	2e	2c	2ee
2A	2a	2e	2cc
2B	2g	2.d	2dd
[2d	2f	.	[2ff
.	.	4e	.
=83	=83	=83	=83
2d]	1d	2f	4ff]
.	.	.	4ee
4c	.	2g	1dd
4B	.	.	.
1A	1e	[1a	.
.	.	.	2cc#i
=84	=84	=84	=84
[0D	[0d	2a]	[0dd
.	.	4g	.
.	.	4f	.
.	.	2b-i	.
.	.	2a	.
=	=	=	=
00D]	00d]	00a	00dd]
=||	=||	=||	=||
*M2/1	*M2/1	*M2/1	*M2/1
*met(C|)	*met(C|)	*met(C|)	*met(C|)
!!Section: Secunda pars: Rogate que ad pacem
!!!OMD: Secunda pars: Rogate que ad pacem
0r	1r	0r	0dd
.	[1g	.	.
=85	=85	=85	=85
0B-X	1g]	1r	1dd
.	1f	1d	[1ff
=86	=86	=86	=86
1B-i	1d	1.f	2ff]
.	.	.	2ee
1B-i	[1f	.	1dd
.	.	2g	.
=87	=87	=87	=87
1.A	2f]	1a	1.cc
.	4e	.	.
.	4d	.	.
.	2c	2A	.
2G	[2e	2B	2b
=88	=88	=88	=88
1F	4e]	2c	1a
.	4d	.	.
.	1d	2d	.
1E	.	1e	1g
.	2c#i	.	.
=89	=89	=89	=89
1D	1d	1A	2f
.	.	.	1ff
1D	1A	[1a	.
.	.	.	2ee
=90	=90	=90	=90
1F	1d	1a]	2dd
.	.	.	2cc
1G	1d	2g	1b
.	.	2f	.
=91	=91	=91	=91
0A	1c	1e	[0a
.	2r	2r	.
.	2A	2c	.
=92	=92	=92	=92
2r	2.A	2.f	0a]
2D	.	.	.
.	4B	4f	.
2.A	2c	2f	.
.	2d	2f	.
4B	.	.	.
=93	=93	=93	=93
2c	2A	2e	2r
2d	1d	2.f	2a
1A	.	.	2.a
.	.	4g	.
.	2c	[2a	.
.	.	.	4b
=94	=94	=94	=94
1r	2.f	4a]	2cc
.	.	4g	.
.	.	4f	2dd
.	4f	4e	.
2r	2f	1d	1a
2D	2f	.	.
=95	=95	=95	=95
2.A	1e	2.c	1r
4B	.	4d	.
2c	2A	2e	2r
2d	[2d	[2f	2a
=96	=96	=96	=96
1A	4d]	2f]	2.a
.	4c	.	.
.	1c	2e	.
.	.	.	4b
2.F	.	[1a	2cc
.	[2f	.	2dd
4G	.	.	.
=97	=97	=97	=97
4A	2f]	2a]	1cc
4B	.	.	.
2c	2e	2g	.
2d	2f	2f	2.a
2c	2g	[2e	.
.	.	.	4b
=98	=98	=98	=98
2A	2.a	2e]	4cc
.	.	.	4dd
2.c	.	2a	2.ee
.	4g	.	.
.	2e	2g	.
4B	.	.	4dd
2G	[2g	[2b	2dd
=99	=99	=99	=99
1A	2g]	4b]	2cc
.	.	4a	.
.	2f	1a	2a
1E	[1e	.	1b
.	.	2g#i	.
=100	=100	=100	=100
1A	1e]	1a	1a
1r	1A	[1a	[1cc
=101	=101	=101	=101
1.F 1.c	1r	2a]	2cc]
.	.	2a	2cc
.	[1a	1a	1cc
2F 2c	.	.	.
=102	=102	=102	=102
1F 1c	2a]	1r	1r
.	2a	.	.
1r	1a	[1cc	[1ee
=103	=103	=103	=103
1.c	1r	2cc]	2ee]
.	.	2cc	2ee
.	[1g	1cc	1ee
2c	.	.	.
=104	=104	=104	=104
1c	2g]	2r	2r
.	2g	2cc	2ee
1r	2f	2cc	2a
.	2d	[2b	[2dd
=105	=105	=105	=105
1A	2e	4b]	2dd]
.	.	4a	.
.	1f	1a	2cc
1d	.	.	1ff
.	4e	4g	.
.	4d	4f	.
=106	=106	=106	=106
2c	1e	2g	2ee
1A	.	2a	1cc
.	2c	2e	.
4G	[2d	2a	4b
4F	.	.	4a
=107	=107	=107	=107
2G	4d]	2g	2b
.	4e	.	.
2D	1f	2f	1a
1B	.	4d	.
.	.	4e	.
.	4e	4f	[2dd
.	4d	4g	.
=108	=108	=108	=108
0A	2.f	[0a	2dd]
.	.	.	4cc
.	4g	.	4b
.	1e	.	[1cc
=	=	=	=
1r	2c	1a]	2cc]
.	1d	.	4b
.	.	.	4a
=-	=-	=-	=-
*	*	*	*M3/3%2
*	*	*	*met(3)
*	*	*	*Xtuplet
2r	.	2r	3b
.	.	.	3a
2D	4c	2d	.
.	.	.	3dd
.	4B	.	.
=	=	=	=
*	*	*	*tuplet
*	*	*	*M2/1
*	*	*	*met(C|)
2.F	1A	2.a	1cc
4F	.	4a	.
2E	2r	2g	2r
2D	2A	2f	2a
=109	=109	=109	=109
1A	2.a	1e	2.cc
.	4a	.	4cc
2r	2g	2e	2b
2A	2f	[2a	2a
=110	=110	=110	=110
2.c	1e	4a]	2.ee
.	.	4a	.
.	.	2.g	.
4c	.	.	4ee
2B	2r	.	2dd
.	.	4f	.
2A	2e	[2a	2cc
=111	=111	=111	=111
1d	2.f	2a]	2a
.	.	2d	2.dd
.	4f	.	.
2r	2e	2.g	.
.	.	.	4cc
2G	2d	.	4dd
.	.	4f	4b
=112	=112	=112	=112
2A	2.a	2e	1cc
2.c	.	2a	.
.	4g	.	.
.	4e	2.g	1r
4B	4f	.	.
2G	[2g	.	.
.	.	4f	.
=113	=113	=113	=113
2B	2g]	2d	0r
2.A	2f	2.c	.
.	2e	.	.
4G	.	4d	.
2E	2c	2e	.
=114	=114	=114	=114
2F	4d	2A	0r
.	4c	.	.
2A	1f	1c	.
1G	.	.	.
.	2e	2B	.
=115	=115	=115	=115
0F	0f	0c	2r
.	.	.	2a
.	.	.	2cc
.	.	.	2cc
=116	=116	=116	=116
0r	0r	2r	2b
.	.	2d	2.a
.	.	2f	.
.	.	.	4b
.	.	2f	4cc
.	.	.	4dd
=117	=117	=117	=117
0r	0r	2e	2ee
.	.	2.d	1ff
.	.	4e	.
.	.	4f	4ee
.	.	4g	4dd
=118	=118	=118	=118
0r	0r	1a	4cc
.	.	.	4dd
.	.	.	1ee
.	.	2g	.
.	.	2f	2dd
=119	=119	=119	=119
0r	0r	2e	1ee
.	.	1a	.
.	.	.	2r
.	.	2g	[2ee
=120	=120	=120	=120
0r	0r	1a	2ee]
.	.	.	2ee
.	.	2r	2dd
.	.	[2a	2cc
=121	=121	=121	=121
0r	0r	2a]	1ff
.	.	2a	.
.	.	2g	2ee
.	.	2f	[2dd
=122	=122	=122	=122
0r	0r	2b-i	2dd]
.	.	1a	2cc
.	.	.	1b
.	.	2g	.
=123	=123	=123	=123
0r	2r	2f	[0a
.	2c	2e	.
.	2d	2.d	.
.	[2f	.	.
.	.	4c	.
=124	=124	=124	=124
1r	2f]	4A	0a]
.	.	4B	.
.	2e	4c	.
.	.	4d	.
2r	2c	4e	.
.	.	4A	.
2A	2e	2a	.
=125	=125	=125	=125
2B	2.d	2g	0r
1d	.	1f	.
.	4c	.	.
.	1A	.	.
2c	.	4e	.
.	.	4d	.
=126	=126	=126	=126
2A	1r	1e	2r
2c	.	.	2cc
1B	2r	1r	2dd
.	2d	.	[2ff
=127	=127	=127	=127
2A	2.c	2r	2ff]
2.c	.	2g	2ee
.	4d	.	.
.	2e	2a	2cc
4B	.	.	.
4A	2c	[2cc	[2ee
4G	.	.	.
=128	=128	=128	=128
2F	2d	2cc]	4ee]
.	.	.	4dd
2D	2f	2b	1dd
1A	1e	1a	.
.	.	.	2cc#i
=129	=129	=129	=129
1D	0d	2.f	[0dd
.	.	4g	.
2r	.	2a	.
[2G	.	[2b-i	.
=130	=130	=130	=130
2G]	2r	2b-]	0dd]
2G	1d	4a	.
.	.	4g	.
2F	.	[1a	.
2D	2d	.	.
=131	=131	=131	=131
2.F	2c	2a]	0r
.	2A	4g	.
4G	.	4f	.
[1A	2.c	1e	.
.	4d	.	.
=132	=132	=132	=132
2A]	1.e	0r	0r
4G	.	.	.
4F	.	.	.
2G	.	.	.
2A	4d	.	.
.	4c	.	.
=133	=133	=133	=133
2D	2d	0r	0r
2.A	2e	.	.
.	2A	.	.
4B	.	.	.
4c	[2a	.	.
4A	.	.	.
=134	=134	=134	=134
2c	4a]	0r	0r
.	4g	.	.
2B	2g	.	.
2.A	2f	.	.
.	[2e	.	.
4B	.	.	.
=135	=135	=135	=135
4c	2e]	2r	0r
4A	.	.	.
2.d	2d	2f	.
.	1e	2g	.
4c	.	.	.
4c	.	[2a	.
4B	.	.	.
=136	=136	=136	=136
1d	0r	2a]	1r
.	.	2f	.
2r	.	2g	2r
2A	.	2a	2cc
=137	=137	=137	=137
2B	0r	2d	2dd
1c	.	2a	1ee
.	.	4g	.
.	.	4f	.
2A	.	[2f	2cc
=138	=138	=138	=138
2B	2r	2f]	2dd
2c	1c	2e	2ee
1F	.	1f	2.a
.	2d	.	.
.	.	.	4b
=139	=139	=139	=139
0r	2e	2g	2cc
.	2c	1a	2a
.	2d	.	1b
.	2e	2g#i	.
=140	=140	=140	=140
2r	2A	1a	1a
2F	1d	.	.
2G	.	2r	2b
[2A	2c	2a	[2cc
=141	=141	=141	=141
2A]	1f	2a	4cc]
.	.	.	4a
2F	.	2a	1dd
2G	1e	2g	.
2A	.	2e	2cc#i
=142	=142	=142	=142
2D	1d	2.f	1dd
2d	.	.	.
.	.	4g	.
2c	1r	[1a	1r
[2d	.	.	.
=143	=143	=143	=143
4d]	2r	0a_	0r
4e	.	.	.
4f	2d	.	.
4d	.	.	.
2e	2c	.	.
2f	[2d	.	.
=144	=144	=144	=144
2d	4d]	1a]	2r
.	4e	.	.
4c	4f	.	2dd
4B	4d	.	.
2A	2e	2r	2cc
2d	[2f	2a	[2dd
=145	=145	=145	=145
2d	4f]	2.a	4dd]
.	4g	.	4ee
2d	4a	.	4ff
.	4f	4b	4dd
2c	2g	2cc	2ee
[2F	2f	[2a	2ff
=146	=146	=146	=146
4F]	1a	4a]	2cc
4G	.	4g	.
4A	.	4f	1ff
4B	.	4d	.
4c	1g	2e	.
4d	.	.	.
[2e	.	2c	2ee
=147	=147	=147	=147
4e]	1f	4d	2ff
4A	.	4e	.
1d	.	4f	2f
.	.	4d	.
.	2r	2e	2g
2c#i	2e	2A	[2a
=148	=148	=148	=148
2d	2f	0r	2a]
2B	1g	.	2g
2c	.	.	1a
[2d	2f	.	.
=149	=149	=149	=149
2d]	1e	2r	2r
2c	.	2e	2cc
1B	1d	2f	2dd
.	.	[2g	2dd
=150	=150	=150	=150
0A	0r	2g]	4ee
.	.	.	4dd
.	.	2f	1dd
.	.	1e	.
.	.	.	2cc#i
=151	=151	=151	=151
0r	2r	1d	2dd
.	2f	.	2a
.	2f	1A	2cc
.	2e	.	2cc
=152	=152	=152	=152
2r	2d	0r	2b
2F	4c	.	1a
.	4B	.	.
2F	2A	.	.
2E	2e	.	2g
=153	=153	=153	=153
1D	2f	2r	1a
.	1d	2f	.
1A	.	2f	1r
.	2c	2e	.
=154	=154	=154	=154
2B	1d	2d	2r
2.d	.	1a	2ff
.	1A	.	2ff
4B	.	.	.
2c	.	2a	2ee
=155	=155	=155	=155
2G	1r	2b	2dd
2.d	.	2a	4cc
.	.	.	4b
.	2r	2f	2a
4c	.	.	.
4B	[2d	[2g	[2b
4A	.	.	.
=156	=156	=156	=156
2G	2d]	4g]	4b]
.	.	4e	4a
2A	2c	1f	1a
1B	1d	.	.
.	.	4e	2g#i
.	.	4d	.
=157	=157	=157	=157
2A	2e	2c	2a
2F	2a	2f	2cc
2A	1a	2f	2cc
2B	.	2d	2dd
=158	=158	=158	=158
2c	2g	2e	2cc
2d	2.f	2f	2b
1c	.	1g	[1cc
.	4e	.	.
.	4e	.	.
.	4d	.	.
=159	=159	=159	=159
0F	1f	0f	2cc]
.	.	.	2a
.	1r	.	[1a
=160	=160	=160	=160
2r	2.f	0r	1a]
2A	.	.	.
.	4f	.	.
2A	2e	.	1r
2G	2g	.	.
=161	=161	=161	=161
1A	2f	1r	0r
.	2.e	.	.
2F	.	2.f	.
.	4d	.	.
4E	[2d	.	.
4D	.	4f	.
=162	=162	=162	=162
1E	2d]	2e	0r
.	2c#i	2g	.
2D	1d	2f	.
[2d	.	4e	.
.	.	4d	.
=163	=163	=163	=163
2d]	1r	1e	1r
2c#i	.	.	.
1d	2.d	2d	2.ff
.	.	2a	.
.	4d	.	4ff
=164	=164	=164	=164
0r	2c	2a	2ee
.	2e	2g	2gg
.	2d	1a	2ff
.	2A	.	[2ee
=165	=165	=165	=165
0r	1B	2f	4ee]
.	.	.	4dd
.	.	4e	1dd
.	.	4d	.
.	1A	1e	.
.	.	.	2cc#i
=166	=166	=166	=166
1r	1r	2d	1dd
.	.	2f	.
2.d	2r	2f	2.ff
.	2a	2d	.
4d	.	.	4ff
=167	=167	=167	=167
2c	2a	1e	2ee
2e	2g	.	2gg
2d	1a	2f	2ff
2A	.	[2a	[2ee
=168	=168	=168	=168
1B	2f	2a]	4ee]
.	.	.	4dd
.	4e	2g	1dd
.	4d	.	.
1A	1e	1a	.
.	.	.	2cc#i
=169	=169	=169	=169
1D	2d	1a	2dd
.	2f	.	2a
1r	2f	1A	2cc
.	2e	.	2cc
=170	=170	=170	=170
2r	2d	0r	2b
2F	4c	.	1a
.	4B	.	.
2F	2A	.	.
2E	2e	.	2g
=171	=171	=171	=171
1D	2f	2r	1a
.	1d	2f	.
1A	.	2f	1r
.	2c#i	2e	.
=172	=172	=172	=172
2B	1d	2d	2r
2.d	.	1a	2ff
.	1A	.	2ff
4B	.	.	.
2c	.	2a	2ee
=173	=173	=173	=173
2G	1r	2b	2dd
2.d	.	2a	4cc
.	.	.	4b
.	2r	2f	2a
4c	.	.	.
4B	[2d	[2g	[2b
4A	.	.	.
=174	=174	=174	=174
2G	2d]	4g]	4b]
.	.	4e	4a
2A	2c	1f	1a
1B	1d	.	.
.	.	4e	2g#i
.	.	4d	.
=175	=175	=175	=175
2A	2e	2c	2a
2F	2a	2f	2cc
2A	1a	2f	2cc
2B	.	2d	2dd
=176	=176	=176	=176
2c	2g	2e	2cc
2d	2.f	2f	2b
1c	.	1g	[1cc
.	4e	.	.
.	4e	.	.
.	4d	.	.
=177	=177	=177	=177
0F	1f	0f	2cc]
.	.	.	2a
.	1r	.	[1a
=178	=178	=178	=178
2r	2.f	0r	1a]
2A	.	.	.
.	4f	.	.
2A	2e	.	1r
2G	2g	.	.
=179	=179	=179	=179
1A	2f	1r	0r
.	2.e	.	.
2F	.	2.f	.
.	4d	.	.
4E	[2d	.	.
4D	.	4f	.
=180	=180	=180	=180
1E	2d]	2e	0r
.	2c#i	2g	.
2D	1d	2f	.
[2d	.	4e	.
.	.	4d	.
=181	=181	=181	=181
2d]	1r	1e	1r
2c#i	.	.	.
1d	2.d	2d	2.ff
.	.	2a	.
.	4d	.	4ff
=182	=182	=182	=182
0r	2c	2a	2ee
.	2e	2g	2gg
.	2d	1a	2ff
.	2A	.	[2ee
=183	=183	=183	=183
0r	1B	2f	4ee]
.	.	.	4dd
.	.	4e	1dd
.	.	4d	.
.	1A	1e	.
.	.	.	2cc#i
=184	=184	=184	=184
1r	1r	2d	1dd
.	.	2f	.
2.d	2r	2f	2.ff
.	2a	2d	.
4d	.	.	4ff
=185	=185	=185	=185
2c	2a	1e	2ee
2e	2g	.	2gg
2d	1a	2f	2ff
2A	.	[2a	[2ee
=186	=186	=186	=186
1B	2f	2a]	4ee]
.	.	.	4dd
.	4e	2g	1dd
.	4d	.	.
1A	1e	1a	.
.	.	.	2cc#i
=187	=187	=187	=187
00Dl	00dl	00al	00ddl
==	==	==	==
*-	*-	*-	*-
!!!system-decoration: [*]
!!!RDF**kern: i = editorial accidental
!!!RDF**kern: l = terminal long
!!!ENC: Benjamin Ory
!!!END: 2023/10/18
!!!EED: Benjamin Ory
!!!EEV: 2023/10/18
!!!YEC: Copyright 2023 Benjamin Ory, All Rights Reserved
!!!ONB: Translated from MusicXML on 2023/10/18
